X: 8192
T: Cooley's
R: reel
M: 4/4
K: Edorian
K: D
|E,2-[E,2E]-E|GGF G2[EB]AB|cdB AGFD [DF]|D[DB]D ADFDA|DdA FD
EBB|B B2 EB B2 ABd|efga fefd|BAFD EFDE-|E
|:D|EBBA B2- BA|B2 AB dBAG|FDAD BDAG|F/E/D FA dAFD|
EB-BA B2 BA|B/c/B AB defg|afef dBAF|DEFD E3:|
|:f|eB B2 eBgB|eB B2 gedB|A/B/A FA DAFA|A2 FA defd|
eB B/c/B eBgf|eB B2 defg|afef dBAF|DE F/E/D E3:|

